X: 1
T: the World Turned Upside Down   [D]
T: When the King Receives His Own Again
O: England 1632
C:
M: C|
L: 1/8
F: http://everythingdulcimer.com/tab/turned.abc	 2005-01-28 18:45:20 UT
K: D
 cB \
| "D"A2 A2 d2 d2 | "A7"efga "D"f2 ef | "G"g2 B2 c2 f2 | "A7"e3 c A4 \
| "D"A2 A2 d2 d2 | "A7"efga "Bm"f2 ef | "Em"g2 B2 "A7"c2 f2 | "A7"e3 d "D"d2 :|
|: "D"d2 \
| "A"e2 cd e2 A2 | "A"edef e2 A2 | "A"edef e2 dc | "E7"B3 A "A"A4 \
| "D"a3  g f2 ed | "Em"efga "Bm"f2 ef | "Em"g2 B2 "A7"c2 f2 | "A7"e3 d "D"d2 :|

%%sep 1 1 500

